tools/download-figma-icons/icons/outlined-medium/eye-closed.svg

<svg width="24" height="24" viewBox="0 0 24 24" fill="none" xmlns="http://www.w3.org/2000/svg">
<path fill-rule="evenodd" clip-rule="evenodd" d="M12.0004 17.4541C10.3151 17.4541 8.72287 16.7814 7.35037 15.8971L9.29212 14.6821C9.97537 15.3999 10.9339 15.8521 12.0004 15.8521C14.0681 15.8521 15.7504 14.1699 15.7504 12.1021C15.7504 11.6409 15.6551 11.2036 15.5021 10.7956L17.9614 9.25664C19.2971 10.3381 20.3066 11.4916 20.8009 12.1021C19.7096 13.4506 16.1201 17.4541 12.0004 17.4541ZM9.80662 12.5904C9.77137 12.4329 9.75037 12.2701 9.75037 12.1021C9.75037 10.8616 10.7599 9.8521 12.0004 9.8521C12.5276 9.8521 13.0076 10.0419 13.3909 10.3471L9.80662 12.5904ZM14.2504 12.1021C14.2504 13.3434 13.2409 14.3521 12.0004 14.3521C11.4731 14.3521 10.9931 14.1624 10.6099 13.8571L14.1941 11.6146C14.2294 11.7721 14.2504 11.9349 14.2504 12.1021ZM3.19987 12.1021C4.29112 10.7536 7.88062 6.75086 12.0004 6.75086C13.6856 6.75086 15.2779 7.42361 16.6504 8.30786L14.7086 9.52286C14.0254 8.80511 13.0669 8.35211 12.0004 8.35211C9.93262 8.35211 8.25037 10.0344 8.25037 12.1021C8.25037 12.5634 8.34562 13.0014 8.49862 13.4086L6.03937 14.9476C4.70362 13.8669 3.69412 12.7134 3.19987 12.1021ZM22.3601 11.6656C22.2679 11.5366 21.1264 9.96761 19.3091 8.41286L22.1479 6.63611C22.4996 6.41636 22.6061 5.95361 22.3864 5.60261C22.1659 5.25086 21.7031 5.14436 21.3529 5.36486L18.0469 7.43411C16.3564 6.23711 14.2804 5.25086 12.0004 5.25086C6.29587 5.25086 1.82812 11.4046 1.64062 11.6656C1.45313 11.9274 1.45313 12.2776 1.64062 12.5386C1.73287 12.6676 2.87437 14.2374 4.69162 15.7914L1.85287 17.5681C1.50112 17.7879 1.39463 18.2506 1.61437 18.6016C1.75687 18.8296 2.00137 18.9541 2.25112 18.9541C2.38762 18.9541 2.52412 18.9174 2.64787 18.8401L5.95387 16.7709C7.64437 17.9679 9.72037 18.9541 12.0004 18.9541C17.7049 18.9541 22.1726 12.8004 22.3601 12.5386C22.5476 12.2776 22.5476 11.9274 22.3601 11.6656Z" fill="black"/>
</svg>

<svg xmlns="http://www.w3.org/2000/svg" width="24" height="24" fill="none" viewBox="0 0 24 24"><path fill="currentColor" fill-rule="evenodd" d="M12 17.454c-1.685 0-3.277-.673-4.65-1.557l1.942-1.215A3.73 3.73 0 0 0 12 15.852a3.754 3.754 0 0 0 3.75-3.75c0-.461-.095-.898-.248-1.306l2.46-1.54a20 20 0 0 1 2.839 2.846c-1.091 1.349-4.68 5.352-8.8 5.352M9.807 12.59a2.2 2.2 0 0 1-.057-.488c0-1.24 1.01-2.25 2.25-2.25.528 0 1.008.19 1.39.495zm4.443-.488c0 1.241-1.01 2.25-2.25 2.25-.527 0-1.007-.19-1.39-.495l3.584-2.242q.054.236.056.487m-11.05 0c1.09-1.348 4.68-5.351 8.8-5.351 1.686 0 3.278.673 4.65 1.557l-1.94 1.215A3.73 3.73 0 0 0 12 8.353a3.754 3.754 0 0 0-3.75 3.75c0 .46.096.898.249 1.306l-2.46 1.539a20 20 0 0 1-2.84-2.846m19.16-.436c-.092-.13-1.234-1.698-3.05-3.253l2.838-1.777a.75.75 0 1 0-.795-1.271l-3.306 2.07C16.357 6.236 14.28 5.25 12 5.25c-5.704 0-10.172 6.154-10.36 6.415a.75.75 0 0 0 0 .873c.093.129 1.234 1.698 3.052 3.252l-2.84 1.777a.75.75 0 1 0 .796 1.272l3.306-2.07c1.69 1.198 3.766 2.184 6.046 2.184 5.705 0 10.173-6.154 10.36-6.415a.75.75 0 0 0 0-.873" clip-rule="evenodd"/></svg>
